src/assets/svgs/notification-bell.svg

<?xml version="1.0" encoding="utf-8"?><!-- Uploaded to: SVG Repo, www.svgrepo.com, Generator: SVG Repo Mixer Tools -->
<svg width="800px" height="800px" viewBox="0 0 24 24" fill="none" xmlns="http://www.w3.org/2000/svg">
<path d="M12.0009 5C13.4331 5 14.8066 5.50571 15.8193 6.40589C16.832 7.30606 17.4009 8.52696 17.4009 9.8C17.4009 11.7691 17.846 13.2436 18.4232 14.3279C19.1606 15.7133 19.5293 16.406 19.5088 16.5642C19.4849 16.7489 19.4544 16.7997 19.3026 16.9075C19.1725 17 18.5254 17 17.2311 17H6.77066C5.47638 17 4.82925 17 4.69916 16.9075C4.54741 16.7997 4.51692 16.7489 4.493 16.5642C4.47249 16.406 4.8412 15.7133 5.57863 14.3279C6.1558 13.2436 6.60089 11.7691 6.60089 9.8C6.60089 8.52696 7.16982 7.30606 8.18251 6.40589C9.19521 5.50571 10.5687 5 12.0009 5ZM12.0009 5V3M9.35489 20C10.0611 20.6233 10.9888 21.0016 12.0049 21.0016C13.0209 21.0016 13.9486 20.6233 14.6549 20" stroke="#000000" stroke-width="2" stroke-linecap="round" stroke-linejoin="round"/>
</svg>

<svg width="800" height="800" viewBox="0 0 24 24" fill="none" xmlns="http://www.w3.org/2000/svg"><path d="M12 5c1.433 0 2.807.506 3.82 1.406 1.012.9 1.58 2.121 1.58 3.394 0 1.97.446 3.444 1.023 4.528.738 1.385 1.106 2.078 1.086 2.236-.024.185-.055.236-.206.343-.13.093-.778.093-2.072.093H6.771c-1.295 0-1.942 0-2.072-.093-.152-.107-.182-.158-.206-.343-.02-.158.348-.85 1.086-2.236C6.156 13.244 6.6 11.769 6.6 9.8c0-1.273.569-2.494 1.582-3.394C9.195 5.506 10.569 5 12 5zm0 0V3M9.356 20a3.991 3.991 0 002.65 1.002A3.992 3.992 0 0014.655 20" stroke="#ffffff" stroke-width="2" stroke-linecap="round" stroke-linejoin="round"/></svg>
